X:769
T:Salmon Tails Up the Water
T:The Banks of Inverness
S:Sessions, records
Z:Nigel Gatherer
M:2/4
L:1/8
K:G
D | GE DE | G2 G>A | Bd AB/A/ | GE D>E |
    GE DE | G2 G>A | Bd AB/A/ | G2 G  :|
z | Bd d2 | ce e2  | dB AB/A/ | GE D2  |
    Bd d2 | ce e>f | ge fd    | e2 g2  |
    Bd d2 | ce e2  | dB AB/A/ | GE D>E |
    GE DE | G2 G>A | Bd AB/A/ | G2 G  |]
<end>
<start>
